icons/v8-turbofan.svg

<?xml version="1.0" encoding="UTF-8"?>
<svg width="256px" height="214px" viewBox="0 0 256 214" version="1.1" xmlns="http://www.w3.org/2000/svg" xmlns:xlink="http://www.w3.org/1999/xlink" preserveAspectRatio="xMidYMid">
    <defs>
        <radialGradient cx="12.7429806%" cy="35.5260116%" fx="12.7429806%" fy="35.5260116%" r="90.674946%" gradientTransform="translate(0.127430,0.355260),scale(1.000000,0.713680),translate(-0.127430,-0.355260)" id="radialGradient-1">
            <stop stop-color="#231F20" stop-opacity="0.1" offset="0%"></stop>
            <stop stop-color="#231F20" stop-opacity="0" offset="100%"></stop>
        </radialGradient>
        <radialGradient cx="49.972973%" cy="49.9324324%" fx="49.972973%" fy="49.9324324%" r="50%" id="radialGradient-2">
            <stop stop-color="#231F20" stop-opacity="0" offset="40%"></stop>
            <stop stop-color="#231F20" stop-opacity="0.04" offset="100%"></stop>
        </radialGradient>
        <radialGradient cx="0.621805792%" cy="5.27728086%" fx="0.621805792%" fy="5.27728086%" r="99.6997445%" gradientTransform="translate(0.006218,0.052773),scale(0.833262,1.000000),translate(-0.006218,-0.052773)" id="radialGradient-3">
            <stop stop-color="#FFFFFF" stop-opacity="0.1" offset="0%"></stop>
            <stop stop-color="#FFFFFF" stop-opacity="0" offset="100%"></stop>
        </radialGradient>
    </defs>
		<g>
				<path d="M102.18259,50.7651805 L102.18259,213.061571 L154.306582,213.061571 L154.306582,50.7651805 L102.18259,50.7651805 Z M153.002123,211.70276 L103.595754,211.70276 L103.595754,52.1239915 L153.002123,52.1239915 L153.002123,211.70276 Z" fill="#424242"></path>
				<polygon fill="#424242" points="0.489171975 10.218259 23.9150743 50.7651805 102.18259 50.7651805 102.18259 213.061571 154.360934 213.061571 154.360934 50.7651805 232.41104 50.7651805 255.836943 10.218259"></polygon>
				<polygon fill="#FFFFFF" opacity="0.2" points="255.021656 11.6314225 255.836943 10.218259 0.489171975 10.218259 1.35881104 11.6314225"></polygon>
				<path d="M45.2755839,50.7651805 L23.9150743,50.7651805 L30.6004246,62.3422505 L40.2208068,62.3422505 C41.6883227,58.3201699 43.318896,54.4611465 45.2755839,50.7651805 Z M210.507006,50.7651805 C212.409342,54.4611465 214.094268,58.3745223 215.507431,62.3422505 L225.72569,62.3422505 L232.41104,50.7651805 L210.507006,50.7651805 Z" fill="#AFAFAF"></path>
				<circle fill="#4285F4" cx="127.891295" cy="93.3231423" r="92.9426752"></circle>
				<path d="M40.7643312,60.929087 L29.785138,60.929087 L30.6004246,62.3422505 L40.2208068,62.3422505 C40.4382166,61.8530786 40.6012739,61.3639066 40.7643312,60.929087 Z M215.018259,60.929087 C215.181316,61.418259 215.344374,61.8530786 215.507431,62.3422505 L225.72569,62.3422505 L226.540977,60.929087 L215.018259,60.929087 Z M127.891295,184.907006 C76.8,184.907006 35.329087,143.653503 34.94862,92.6165605 L34.94862,93.2687898 C34.94862,144.577495 76.5825902,186.211465 127.891295,186.211465 C179.2,186.211465 220.83397,144.577495 220.83397,93.2687898 L220.83397,92.6165605 C220.453503,143.653503 178.98259,184.907006 127.891295,184.907006 Z" fill="#263238" opacity="0.3"></path>
				<path d="M127.891295,1.73927813 C178.98259,1.73927813 220.453503,42.9927813 220.83397,94.029724 L220.83397,93.3774947 C220.83397,42.0687898 179.2,0.434819533 127.891295,0.434819533 C76.5825902,0.434819533 34.94862,42.0687898 34.94862,93.3774947 L34.94862,94.029724 C35.329087,42.9927813 76.8,1.73927813 127.891295,1.73927813 Z" fill="#FFFFFF" opacity="0.2"></path>
				<circle fill="#263238" opacity="0.3" cx="127.891295" cy="94.3558386" r="60.8747346"></circle>
				<path d="M220.236093,103.921868 L179.960934,63.6467091 L173.275584,67.5057325 L147.077707,41.3078556 L128.543524,89.6815287 L119.575372,128.163057 L127.673885,155.230573 L154.795754,182.352442 C189.744374,171.753715 215.996603,141.207643 220.236093,103.921868 Z" fill="url(#radialGradient-1)"></path>
				<path d="M127.673885,34.5138004 L127.673885,94.8450106 L154.415287,59.1354565 C152.947771,43.8624204 142.185987,34.5138004 127.673885,34.5138004 Z M74.8976645,64.4076433 L127.673885,94.8450106 L110.118047,53.9176221 C96.1494692,47.5583864 82.1808917,51.8522293 74.8976645,64.4076433 Z M75.3868365,125.064968 L127.673885,94.8450106 L83.4853503,89.6271762 C70.9299363,98.5409766 68.1036093,112.509554 75.3868365,125.064968 Z" fill="#E8E8E8"></path>
				<path d="M127.673885,155.230573 L127.673885,94.8993631 L101.041189,129.521868 C102.454352,144.794904 113.107431,155.230573 127.673885,155.230573 Z M145.229724,135.772399 C159.198301,142.185987 173.221231,136.859448 180.450106,124.304034 L127.728238,93.4318471 L145.229724,135.772399 Z" fill="#D6D6D6"></path>
				<path d="M179.960934,64.6794055 L127.673885,94.8993631 L171.86242,100.117197 C184.363482,91.1490446 187.244161,77.1804671 179.960934,64.6794055 Z" fill="#D6D6D6"></path>
				<path d="M127.673885,93.8123142 L127.673885,33.481104 C142.185987,33.481104 152.839066,42.8840764 154.306582,58.211465 L127.673885,93.8123142 Z M127.673885,93.8123142 L75.3868365,63.5923567 C82.7244161,51.0369427 96.2038217,46.4713376 110.118047,52.8849257 L127.673885,93.8123142 Z" fill="#FFFFFF"></path>
				<path d="M127.673885,93.8123142 L75.3868365,124.032272 C68.1036093,111.476858 70.9842887,97.5082803 83.4853503,88.5944798 L127.673885,93.8123142 Z" fill="#FFFFFF"></path>
				<path d="M127.673885,93.8123142 L127.673885,154.143524 C113.161783,154.143524 102.508705,144.740552 101.041189,129.413163 L127.673885,93.8123142 Z M127.673885,93.8123142 L179.960934,124.032272 C172.677707,136.587686 159.198301,141.153291 145.229724,134.739703 L127.673885,93.8123142 Z" fill="#E8E8E8"></path>
				<path d="M127.673885,93.8123142 L179.960934,63.5923567 C187.244161,76.1477707 184.363482,90.1163482 171.86242,99.0301486 L127.673885,93.8123142 Z" fill="#E8E8E8"></path>
				<circle fill="#FFFFFF" cx="127.619533" cy="93.05138" r="20.1104034"></circle>
				<circle fill="url(#radialGradient-2)" cx="127.619533" cy="93.05138" r="20.1104034"></circle>
				<path d="M169.470913,10.218259 C156.969851,3.96772824 142.838217,0.380467091 127.891295,0.380467091 C112.944374,0.380467091 98.8127389,3.9133758 86.3116773,10.218259 L0.489171975,10.218259 L0.869639066,10.9248408 L1.3044586,11.6857749 L23.9150743,50.8195329 L29.785138,60.9834395 L30.6004246,62.396603 L40.2208068,62.396603 C36.796603,72.0713376 34.8942675,82.5070064 34.8942675,93.3774947 C34.8942675,135.772399 63.3205945,171.590658 102.128238,182.732909 L102.128238,213.061571 L154.252229,213.061571 L154.252229,182.461146 C192.679406,171.047134 220.725265,135.500637 220.725265,93.3231423 C220.725265,82.4526539 218.877282,72.0169851 215.398726,62.3422505 L225.616985,62.3422505 L232.302335,50.7651805 L255.728238,10.218259 L169.470913,10.218259 Z M43.9167728,53.4828025 C43.8624204,53.537155 43.8624204,53.5915074 43.8080679,53.7002123 C43.8080679,53.6458599 43.8624204,53.5915074 43.9167728,53.4828025 Z M42.6123142,56.363482 C42.6123142,56.4178344 42.5579618,56.4721868 42.5579618,56.5265393 C42.5579618,56.4178344 42.5579618,56.4178344 42.6123142,56.363482 Z M211.865817,53.4828025 C211.92017,53.537155 211.92017,53.5915074 211.974522,53.7002123 C211.974522,53.6458599 211.92017,53.5915074 211.865817,53.4828025 Z M213.170276,56.363482 C213.170276,56.4178344 213.224628,56.4721868 213.224628,56.5265393 C213.224628,56.4178344 213.224628,56.4178344 213.170276,56.363482 Z" fill="url(#radialGradient-3)"></path>
		</g>
</svg>

<svg xmlns="http://www.w3.org/2000/svg" viewBox="0 0 255.348 212.681">
  <defs>
    <radialGradient id="a" cx="156.727" cy="77.227" r="108.043" fx="156.727" fy="77.227" gradientTransform="scale(.8448 1.18372)" gradientUnits="userSpaceOnUse">
      <stop offset="0%" stop-color="#231F20" stop-opacity=".1"/>
      <stop offset="100%" stop-color="#231F20" stop-opacity="0"/>
    </radialGradient>
    <radialGradient id="b" cx="127.609" cy="93.024" r="20.11" fx="127.609" fy="93.024" gradientUnits="userSpaceOnUse">
      <stop offset="40%" stop-color="#231F20" stop-opacity="0"/>
      <stop offset="100%" stop-color="#231F20" stop-opacity=".04"/>
    </radialGradient>
    <radialGradient id="c" cx="1.895" cy="12.712" r="232.291" fx="1.895" fy="12.712" gradientTransform="scale(1.0955 .91283)" gradientUnits="userSpaceOnUse">
      <stop offset="0%" stop-color="#FFF" stop-opacity=".1"/>
      <stop offset="100%" stop-color="#FFF" stop-opacity="0"/>
    </radialGradient>
  </defs>
  <g transform="translate(-.49 -.38)">
    <path fill="#424242" d="M102.183 50.765v162.297h52.124V50.765zm50.82 160.938h-49.407V52.124h49.406z"/>
    <path fill="#424242" d="M102.183 50.765v162.297h52.178V50.765h78.05l23.426-40.547H.489l23.426 40.547z"/>
    <path fill="#fff" d="m.49 10.218.869 1.413h253.663l.815-1.413z" opacity=".2"/>
    <path fill="#afafaf" d="M45.276 50.765h-21.36L30.6 62.342h9.62c1.468-4.022 3.099-7.88 5.056-11.577zm165.231 0a95.305 95.305 0 0 1 5 11.577h10.219l6.685-11.577z"/>
    <circle cx="127.891" cy="93.323" r="92.943" fill="#4285f4"/>
    <path fill="#263238" d="M40.764 60.93H29.785l.815 1.412h9.62c.218-.489.381-.978.544-1.413zm174.254 0c.163.488.326.923.49 1.412h10.218l.815-1.413zm-87.127 123.977c-51.091 0-92.562-41.253-92.942-92.29v.652c0 51.308 41.634 92.942 92.942 92.942 51.309 0 92.943-41.634 92.943-92.942v-.652c-.38 51.037-41.851 92.29-92.943 92.29z" opacity=".3"/>
    <path fill="#fff" d="M127.891 1.74c51.092 0 92.563 41.253 92.943 92.29v-.653C220.834 42.07 179.2.435 127.891.435 76.583.435 34.95 42.069 34.95 93.377v.653C35.329 42.993 76.8 1.74 127.89 1.74z" opacity=".2"/>
    <circle cx="127.891" cy="94.356" r="60.875" fill="#263238" opacity=".3"/>
    <path fill="url(#a)" d="m220.236 103.922-40.275-40.275-6.685 3.859-26.198-26.198-18.534 48.374-8.969 38.481 8.099 27.068 27.122 27.121c34.948-10.598 61.2-41.144 65.44-78.43z" style="fill:url(#a)"/>
    <path fill="#e8e8e8" d="M127.674 34.514v60.331l26.741-35.71c-1.467-15.273-12.229-24.621-26.741-24.621zM74.898 64.408l52.776 30.437-17.556-40.927c-13.969-6.36-27.937-2.066-35.22 10.49zm.489 60.657 52.287-30.22-44.189-5.218c-12.555 8.914-15.381 22.883-8.098 35.438z"/>
    <path fill="#d6d6d6" d="M127.674 155.23V94.9l-26.633 34.622c1.413 15.273 12.066 25.709 26.633 25.709zm17.556-19.458c13.968 6.414 27.991 1.087 35.22-11.468l-52.722-30.872z"/>
    <path fill="#d6d6d6" d="M179.96 64.68 127.675 94.9l44.188 5.217c12.501-8.968 15.382-22.937 8.099-35.438z"/>
    <path fill="#fff" d="M127.674 93.812v-60.33c14.512 0 25.165 9.402 26.633 24.73zm0 0-52.287-30.22c7.337-12.555 20.817-17.12 34.731-10.707zM127.674 93.812l-52.287 30.22c-7.283-12.555-4.403-26.524 8.098-35.438z"/>
    <path fill="#e8e8e8" d="M127.674 93.812v60.332c-14.512 0-25.165-9.403-26.633-24.73zm0 0 52.287 30.22c-7.283 12.556-20.763 17.121-34.731 10.708zM127.674 93.812l52.287-30.22c7.283 12.556 4.402 26.524-8.099 35.438z"/>
    <circle cx="127.62" cy="93.051" r="20.11" fill="#fff"/>
    <circle cx="127.62" cy="93.051" r="20.11" fill="url(#b)" style="fill:url(#b)"/>
    <path fill="url(#c)" d="M169.47 10.218C156.97 3.968 142.839.38 127.892.38s-29.078 3.533-41.58 9.838H.49l.38.707.435.76L23.915 50.82l5.87 10.163.815 1.414h9.62a92.732 92.732 0 0 0-5.326 30.98c0 42.395 28.427 78.214 67.234 89.356v30.329h52.124v-30.6c38.427-11.415 66.473-46.961 66.473-89.139 0-10.87-1.848-21.306-5.326-30.98h10.218l6.685-11.578 23.426-40.547zM43.918 53.483c-.055.054-.055.109-.109.217 0-.054.054-.108.109-.217zm-1.305 2.88c0 .055-.054.11-.054.164 0-.11 0-.11.054-.164zm169.254-2.88c.054.054.054.109.109.217 0-.054-.055-.108-.11-.217zm1.304 2.88c0 .055.055.11.055.164 0-.11 0-.11-.055-.164z" style="fill:url(#c)"/>
  </g>
</svg>
